!!!OTL: IST DENN DIESES WIRKLICH WAHR
!!!ARE: Europa, Mitteleuropa, Deutschland, Schlesien; Posen; Schwaben
!!!SCT: E0349A
!!!YEM: Copyright 1995, estate of Helmut Schaffrath.
**kern
*ICvox
*Ivox
*M2/4
*k[f#]
*G:
=1
{8d
8g
8g
8g
=2
8f#
8a
4d}
=3
{8d
8a
8a
8a
=4
8a
8b
4b}
=5
{8g
8b
8b
8b
=6
8b
8dd
4dd}
=7
{8a
8b
8cc
8f#
=8
4a
4g}
==
!!!AGN: historisches Lied, Napoleons russischer Feldzug (1812)
!!!ONB: ESAC (Essen Associative Code) Database: ERK1
!!!AMT: simple duple
!!!AIN: vox
!!!EED: Helmut Schaffrath
!!!EEV: 1.0
*-
